X:7023
T:the Liverpool Hornpipe
O:england
M:4/4
A:North-West
R:Hornpipe
K:D
AG|\
FDFA dfaf| gfec dcBA| G2BG F2AF| EDEF GBAG| \
FDFA dfaf| gfec dcBA| dfaf bgec| d2f2 d2::\
(3ABc|\
d2fd c2ec| BABc dAFD| G2BG F2AF| EDEF GBAG| \
FDFA dfaf| gfec dcBA| dfaf bgec| d2f2 d2:|
